dist/img/sprites/README.svg

<svg width="20" height="20" viewBox="0 0 20 20" fill="none" xmlns="http://www.w3.org/2000/svg">
<path d="M17.3117 12.5234L13.6211 10.8695C13.4539 10.7979 13.2714 10.7691 13.0903 10.7857C12.9091 10.8023 12.735 10.8639 12.5836 10.9648C12.5682 10.9747 12.5536 10.9857 12.5399 10.9976L10.6109 12.6383C10.5909 12.6492 10.5687 12.6553 10.5459 12.6561C10.5231 12.6569 10.5004 12.6524 10.4797 12.643C9.23985 12.0445 7.95548 10.768 7.3547 9.5453C7.34469 9.52487 7.33949 9.50242 7.33949 9.47967C7.33949 9.45692 7.34469 9.43448 7.3547 9.41405L9.00079 7.46092C9.0126 7.44647 9.02356 7.43134 9.0336 7.41561C9.13312 7.26366 9.19324 7.08932 9.20851 6.90832C9.22379 6.72732 9.19375 6.54537 9.1211 6.37889L7.47892 2.69451C7.38566 2.47702 7.22437 2.29564 7.01927 2.1776C6.81417 2.05955 6.57632 2.01121 6.34141 2.03983C5.3205 2.17404 4.38338 2.6754 3.70518 3.45022C3.02699 4.22503 2.65412 5.22028 2.65626 6.24998C2.65626 12.3672 7.63282 17.3437 13.75 17.3437C14.7797 17.3457 15.7748 16.9728 16.5496 16.2946C17.3244 15.6164 17.8258 14.6794 17.9602 13.6586C17.9887 13.4248 17.941 13.188 17.8242 12.9835C17.7074 12.7789 17.5276 12.6176 17.3117 12.5234ZM13.75 16.4062C8.15001 16.4062 3.59376 11.85 3.59376 6.24998C3.59115 5.44837 3.88048 4.67322 4.4077 4.06937C4.93492 3.46551 5.66396 3.07427 6.4586 2.96873H6.47657C6.50805 2.96932 6.53863 2.97941 6.56428 2.99767C6.58993 3.01593 6.60946 3.04152 6.62032 3.07108L8.26876 6.75155C8.27816 6.77201 8.28303 6.79426 8.28303 6.81678C8.28303 6.8393 8.27816 6.86155 8.26876 6.88201L6.61954 8.83983C6.60724 8.8538 6.59601 8.86869 6.58595 8.88436C6.48275 9.0419 6.42198 9.22343 6.40952 9.41135C6.39707 9.59927 6.43335 9.78723 6.51485 9.95701C7.20782 11.3758 8.63751 12.7945 10.0719 13.4875C10.2427 13.5685 10.4315 13.6039 10.6201 13.5903C10.8086 13.5766 10.9904 13.5142 11.1477 13.4094C11.1625 13.3992 11.1774 13.3883 11.1914 13.3765L13.1195 11.7359C13.1386 11.7257 13.1596 11.7197 13.1812 11.7183C13.2028 11.717 13.2244 11.7203 13.2445 11.7281L16.9359 13.382C16.9661 13.3949 16.9914 13.4169 17.0084 13.4449C17.0254 13.4729 17.0331 13.5056 17.0305 13.5383C16.9255 14.3333 16.5346 15.0629 15.9309 15.5907C15.3272 16.1185 14.5519 16.4084 13.75 16.4062Z" fill="#004B91"/>
</svg>

<svg width="20" height="20" viewBox="0 0 20 20" fill="none" xmlns="http://www.w3.org/2000/svg"><path d="M17.312 12.523l-3.69-1.653a1.095 1.095 0 00-1.082.128l-1.93 1.64a.146.146 0 01-.13.005c-1.24-.599-2.525-1.875-3.125-3.098a.15.15 0 010-.131L9 7.461a1.094 1.094 0 00.12-1.082L7.48 2.695a1.094 1.094 0 00-1.14-.655 4.237 4.237 0 00-3.685 4.21c0 6.117 4.977 11.094 11.094 11.094a4.238 4.238 0 004.21-3.685 1.094 1.094 0 00-.648-1.136zm-3.562 3.883c-5.6 0-10.156-4.556-10.156-10.156a3.3 3.3 0 012.865-3.281h.018a.156.156 0 01.143.102l1.649 3.68a.156.156 0 010 .131L6.619 8.84a1.094 1.094 0 00-.105 1.117c.694 1.419 2.124 2.837 3.558 3.53a1.095 1.095 0 001.12-.11l1.928-1.641a.152.152 0 01.125-.008l3.69 1.654a.157.157 0 01.096.156 3.3 3.3 0 01-3.281 2.868z" fill="#004B91"/></svg>
